images/logo.svg

<?xml version="1.0" encoding="UTF-8" standalone="no"?>
<!DOCTYPE svg PUBLIC "-//W3C//DTD SVG 1.1//EN" "http://www.w3.org/Graphics/SVG/1.1/DTD/svg11.dtd">
<!-- Created with Vectornator (http://vectornator.io/) -->
<svg height="100%" stroke-miterlimit="10" style="fill-rule:nonzero;clip-rule:evenodd;stroke-linecap:round;stroke-linejoin:round;" version="1.1" viewBox="0 0 168 66" width="100%" xml:space="preserve" xmlns="http://www.w3.org/2000/svg" xmlns:vectornator="http://vectornator.io" xmlns:xlink="http://www.w3.org/1999/xlink">
<defs/>
<clipPath id="ArtboardFrame">
<rect height="66" width="168" x="0" y="0"/>
</clipPath>
<g clip-path="url(#ArtboardFrame)" id="Untitled" vectornator:layerName="Untitled">
<path d="M0 0L0 26.6L4.14 26.6L4.14 0L0 0ZM4.29 0L6.88 26.6L8.28 26.6L5.7 0C5.7 0 4.29 0 4.29 0ZM11.02 0L8.44 26.6L9.84 26.6L12.43 0L11.02 0ZM12.58 0L12.58 26.6L16.76 26.6L16.76 0C16.76 0 12.58 0 12.58 0ZM28.27 0L28.27 20.48C28.27 24.05 31.5 26.83 34.96 26.83C38.42 26.83 41.65 24.05 41.65 20.48L41.65-3.55271e-15L37.47-3.55271e-15L37.47 20.33C37.47 21.77 36.18 22.8 34.96 22.8C33.74 22.8 32.45 21.77 32.45 20.33L32.45-3.55271e-15C32.45-3.55271e-15 28.27-3.55271e-15 28.27 0ZM54.53 0L54.53 26.6L58.71 26.6L58.71 0L54.53 0ZM58.86 0L62.81 26.6L64.26 26.6L60.31 0L58.86 0ZM64.41 0L64.41 26.6L68.59 26.6L68.59 0L64.41 0ZM82.46 25.12L82.46 26.6L93.82 26.6L93.82 25.12L90.21 25.12L90.21 1.48L93.82 1.48L93.82 4.44089e-16L82.46 4.44089e-16L82.46 1.48L86.03 1.48L86.03 25.12L82.46 25.12Z" fill="#0000dc" fill-rule="nonzero" opacity="1" stroke="none" vectornator:layerName="path"/>
<path d="M6.27 38.5L0.53 65.1L2.66 65.1L4.45 56.7L12.2 56.7L14.02 65.1L16.15 65.1L10.49 38.5L8.44 38.5L11.86 54.8L4.79 54.8L8.28 38.5C8.28 38.5 6.27 38.5 6.27 38.5ZM28.99 38.5L28.99 65.1L31.05 65.1L31.05 53.85L34.5 53.85L40.81 65.1L43.17 65.1L36.67 53.62C39.79 53.36 42.26 50.74 42.26 47.51L42.26 44.85C42.26 41.39 39.37 38.5 35.91 38.5C35.91 38.5 28.99 38.5 28.99 38.5ZM35.72 51.91L31.05 51.91L31.05 40.4L35.72 40.4C38.15 40.4 40.24 42.38 40.24 44.88L40.24 47.28C40.24 50.01 38.27 51.91 35.72 51.91ZM60.53 40.4L60.53 65.1L62.59 65.1L62.59 40.4L69.69 40.4L69.69 38.5L53.43 38.5L53.43 40.4C53.43 40.4 60.53 40.4 60.53 40.4ZM88.16 65.33C91.81 65.33 94.73 62.74 94.73 58.98L94.73 57.35C94.73 53.02 91.09 51.53 88.58 50.96C86.26 50.43 83.64 49.56 83.64 46.44L83.64 44.66C83.64 42.19 85.77 40.25 88.16 40.25C90.52 40.25 92.68 42.19 92.68 44.66L92.68 45.61L94.73 45.61L94.73 44.62C94.73 40.97 91.81 38.27 88.16 38.27C84.51 38.27 81.59 40.97 81.59 44.62L81.59 46.44C81.59 50.89 85.35 52.29 87.67 52.83C90.1 53.36 92.68 54.23 92.68 57.39L92.68 58.94C92.68 61.41 90.55 63.35 88.2 63.35C85.8 63.35 83.64 61.41 83.64 58.94L83.64 58.07L81.59 58.07L81.59 58.98C81.59 62.74 84.51 65.33 88.16 65.33Z" fill="#0000dc" fill-rule="nonzero" opacity="1" stroke="none" vectornator:layerName="path"/>
<path d="M111.29 0.01L111.29 10.69L114.84 10.69C118.47 10.69 120.51 8.77 120.51 5.35C120.51 1.93 118.47 0.01 114.84 0.01C114.84 0.01 111.29 0.01 111.29 0.01ZM113.48 1.9L114.81 1.9C117.11 1.9 118.23 3.04 118.23 5.35C118.23 7.66 117.11 8.8 114.81 8.8L113.48 8.8C113.48 8.8 113.48 1.9 113.48 1.9ZM124.19 1.81L124.19 0.01L122.09 0.01L122.09 1.81L124.19 1.81ZM124.19 10.69L124.19 3.07L122.09 3.07L122.09 10.69L124.19 10.69ZM128.89 2.86C126.97 2.86 125.74 4.36 125.74 6.73C125.74 9.1 126.95 10.6 128.86 10.6C129.77 10.6 130.42 10.25 130.99 9.46L131.02 9.46L131.02 10.13C131.02 11.62 130.43 12.1 129.49 12.1C128.69 12.1 128.21 11.75 128.17 11.17L126.07 11.17C126.19 12.67 127.34 13.6 129.44 13.6C131.63 13.6 133.06 12.52 133.06 10.21L133.06 3.07L131.08 3.07L131.08 4.09L131.05 4.09C130.46 3.22 129.81 2.86 128.89 2.86ZM129.46 4.58C130.44 4.58 131.08 5.44 131.08 6.73C131.08 8.02 130.44 8.87 129.46 8.87C128.53 8.87 127.93 8.05 127.93 6.73C127.93 5.41 128.53 4.58 129.46 4.58ZM137.2 1.81L137.2 0.01L135.1 0.01L135.1 1.81L137.2 1.81ZM137.2 10.69L137.2 3.07L135.1 3.07L135.1 10.69L137.2 10.69ZM142.65 9.11C141.94 9.11 141.66 8.78 141.66 7.94L141.66 4.63L143.12 4.63L143.12 3.07L141.66 3.07L141.66 1.09L139.56 1.09L139.56 3.07L138.34 3.07L138.34 4.63L139.56 4.63L139.56 8.32C139.56 10.09 140.33 10.79 142.09 10.79C142.44 10.79 142.91 10.73 143.19 10.64L143.19 9.04C143.06 9.08 142.85 9.11 142.65 9.11ZM147.57 2.83C145.4 2.83 144.35 4 144.28 5.45L146.31 5.45C146.34 4.73 146.79 4.3 147.57 4.3C148.31 4.3 148.82 4.69 148.82 5.65L148.82 5.92C148.34 5.95 147.48 6.04 146.91 6.13C144.71 6.47 143.96 7.31 143.96 8.56C143.96 9.88 144.94 10.87 146.56 10.87C147.6 10.87 148.46 10.48 149.03 9.67L149.06 9.67C149.06 10.04 149.09 10.37 149.16 10.69L151.06 10.69C150.92 10.18 150.84 9.56 150.84 8.6L150.84 5.84C150.84 3.85 149.73 2.83 147.57 2.83ZM148.82 7.48C148.82 8.17 148.75 8.57 148.38 8.93C148.08 9.23 147.62 9.37 147.19 9.37C146.45 9.37 146.06 8.98 146.06 8.41C146.06 7.79 146.42 7.51 147.29 7.36C147.74 7.28 148.37 7.22 148.82 7.19C148.82 7.19 148.82 7.48 148.82 7.48ZM154.9 10.69L154.9 0.01L152.8 0.01L152.8 10.69L154.9 10.69ZM159.03 1.81L159.03 0.01L156.94 0.01L156.94 1.81L159.03 1.81ZM159.03 10.69L159.03 3.07L156.94 3.07L156.94 10.69L159.03 10.69ZM164.06 2.83C161.88 2.83 160.83 4 160.76 5.45L162.8 5.45C162.83 4.73 163.28 4.3 164.06 4.3C164.79 4.3 165.3 4.69 165.3 5.65L165.3 5.92C164.82 5.95 163.97 6.04 163.4 6.13C161.19 6.47 160.44 7.31 160.44 8.56C160.44 9.88 161.42 10.87 163.04 10.87C164.09 10.87 164.94 10.48 165.51 9.67L165.54 9.67C165.54 10.04 165.57 10.37 165.65 10.69L167.54 10.69C167.4 10.18 167.33 9.56 167.33 8.6L167.33 5.84C167.33 3.85 166.22 2.83 164.06 2.83ZM165.3 7.48C165.3 8.17 165.23 8.57 164.87 8.93C164.57 9.23 164.1 9.37 163.67 9.37C162.93 9.37 162.54 8.98 162.54 8.41C162.54 7.79 162.9 7.51 163.77 7.36C164.22 7.28 164.85 7.22 165.3 7.19C165.3 7.19 165.3 7.48 165.3 7.48Z" fill="#0000dc" fill-rule="nonzero" opacity="1" stroke="none" vectornator:layerName="path"/>
<g fill="#0000dc" opacity="1" stroke="none" vectornator:layerName="Text 1">
<path d="M118.04 28.805L118.04 23.87L112.595 23.87L112.595 28.805L111.215 28.805L111.215 18.125L112.595 18.125L112.595 22.655L118.04 22.655L118.04 18.125L119.435 18.125L119.435 28.805L118.04 28.805Z"/>
<path d="M125.045 27.995C125.585 27.995 126.032 27.86 126.388 27.59C126.743 27.32 126.965 26.965 127.055 26.525L128.405 26.525C128.265 27.235 127.903 27.8275 127.318 28.3025C126.732 28.7775 125.975 29.015 125.045 29.015C124.305 29.015 123.665 28.845 123.125 28.505C122.585 28.165 122.173 27.685 121.888 27.065C121.602 26.445 121.46 25.72 121.46 24.89C121.46 24.14 121.602 23.4675 121.888 22.8725C122.173 22.2775 122.582 21.8125 123.118 21.4775C123.653 21.1425 124.28 20.975 125 20.975C125.85 20.975 126.567 21.21 127.153 21.68C127.738 22.15 128.13 22.8 128.33 23.63C128.43 24.04 128.48 24.585 128.48 25.265L122.78 25.265C122.81 26.165 123.032 26.845 123.448 27.305C123.863 27.765 124.395 27.995 125.045 27.995ZM125 21.995C124.38 21.995 123.875 22.1925 123.485 22.5875C123.095 22.9825 122.865 23.54 122.795 24.26L127.175 24.26C127.105 23.53 126.875 22.97 126.485 22.58C126.095 22.19 125.6 21.995 125 21.995Z"/>
<path d="M133.805 21.11C134.025 21.11 134.21 21.13 134.36 21.17L134.36 22.355C134.03 22.325 133.855 22.31 133.835 22.31C133.115 22.31 132.56 22.535 132.17 22.985C131.78 23.435 131.585 24.08 131.585 24.92L131.585 28.805L130.265 28.805L130.265 21.185L131.525 21.185L131.525 22.355L131.555 22.355C132.055 21.525 132.805 21.11 133.805 21.11Z"/>
<path d="M137.045 22.235C137.255 21.855 137.567 21.5525 137.983 21.3275C138.398 21.1025 138.86 20.99 139.37 20.99C140.01 20.99 140.57 21.1525 141.05 21.4775C141.53 21.8025 141.9 22.2675 142.16 22.8725C142.42 23.4775 142.55 24.18 142.55 24.98C142.55 25.78 142.42 26.4825 142.16 27.0875C141.9 27.6925 141.528 28.16 141.043 28.49C140.557 28.82 139.995 28.985 139.355 28.985C138.845 28.985 138.38 28.87 137.96 28.64C137.54 28.41 137.23 28.095 137.03 27.695L137 27.695L137 28.805L135.695 28.805L135.695 18.125L137.015 18.125L137.015 22.235L137.045 22.235ZM139.025 22.055C138.395 22.055 137.893 22.3175 137.518 22.8425C137.142 23.3675 136.955 24.08 136.955 24.98C136.955 25.88 137.142 26.595 137.518 27.125C137.893 27.655 138.395 27.92 139.025 27.92C139.675 27.92 140.195 27.6525 140.585 27.1175C140.975 26.5825 141.17 25.87 141.17 24.98C141.17 24.09 140.975 23.38 140.585 22.85C140.195 22.32 139.675 22.055 139.025 22.055Z"/>
<path d="M147.05 20.975C148 20.975 148.737 21.2225 149.262 21.7175C149.788 22.2125 150.05 22.95 150.05 23.93L150.05 26.855C150.05 27.625 150.11 28.275 150.23 28.805L149.03 28.805C148.96 28.485 148.925 28.115 148.925 27.695L148.895 27.695C148.625 28.105 148.27 28.42 147.83 28.64C147.39 28.86 146.865 28.97 146.255 28.97C145.475 28.97 144.85 28.7625 144.38 28.3475C143.91 27.9325 143.675 27.395 143.675 26.735C143.675 26.075 143.892 25.5525 144.328 25.1675C144.763 24.7825 145.51 24.505 146.57 24.335C147.31 24.215 148.045 24.13 148.775 24.08L148.775 23.78C148.775 23.17 148.623 22.72 148.317 22.43C148.012 22.14 147.59 21.995 147.05 21.995C146.51 21.995 146.09 22.1325 145.79 22.4075C145.49 22.6825 145.33 23.05 145.31 23.51L143.99 23.51C144.03 22.76 144.315 22.15 144.845 21.68C145.375 21.21 146.11 20.975 147.05 20.975ZM148.775 25.085C148.005 25.145 147.34 25.225 146.78 25.325C146.14 25.425 145.688 25.575 145.423 25.775C145.157 25.975 145.025 26.265 145.025 26.645C145.025 27.045 145.162 27.3625 145.438 27.5975C145.713 27.8325 146.095 27.95 146.585 27.95C146.895 27.95 147.187 27.8975 147.463 27.7925C147.738 27.6875 147.97 27.54 148.16 27.35C148.39 27.11 148.55 26.8625 148.64 26.6075C148.73 26.3525 148.775 26 148.775 25.55L148.775 25.085Z"/>
<path d="M155.84 21.11C156.06 21.11 156.245 21.13 156.395 21.17L156.395 22.355C156.065 22.325 155.89 22.31 155.87 22.31C155.15 22.31 154.595 22.535 154.205 22.985C153.815 23.435 153.62 24.08 153.62 24.92L153.62 28.805L152.3 28.805L152.3 21.185L153.56 21.185L153.56 22.355L153.59 22.355C154.09 21.525 154.84 21.11 155.84 21.11Z"/>
<path d="M157.73 28.805L157.73 21.185L159.05 21.185L159.05 28.805L157.73 28.805ZM157.73 19.61L157.73 18.125L159.05 18.125L159.05 19.61L157.73 19.61Z"/>
<path d="M164.105 20.975C165.055 20.975 165.792 21.2225 166.317 21.7175C166.843 22.2125 167.105 22.95 167.105 23.93L167.105 26.855C167.105 27.625 167.165 28.275 167.285 28.805L166.085 28.805C166.015 28.485 165.98 28.115 165.98 27.695L165.95 27.695C165.68 28.105 165.325 28.42 164.885 28.64C164.445 28.86 163.92 28.97 163.31 28.97C162.53 28.97 161.905 28.7625 161.435 28.3475C160.965 27.9325 160.73 27.395 160.73 26.735C160.73 26.075 160.947 25.5525 161.382 25.1675C161.818 24.7825 162.565 24.505 163.625 24.335C164.365 24.215 165.1 24.13 165.83 24.08L165.83 23.78C165.83 23.17 165.678 22.72 165.373 22.43C165.067 22.14 164.645 21.995 164.105 21.995C163.565 21.995 163.145 22.1325 162.845 22.4075C162.545 22.6825 162.385 23.05 162.365 23.51L161.045 23.51C161.085 22.76 161.37 22.15 161.9 21.68C162.43 21.21 163.165 20.975 164.105 20.975ZM165.83 25.085C165.06 25.145 164.395 25.225 163.835 25.325C163.195 25.425 162.743 25.575 162.478 25.775C162.212 25.975 162.08 26.265 162.08 26.645C162.08 27.045 162.217 27.3625 162.493 27.5975C162.768 27.8325 163.15 27.95 163.64 27.95C163.95 27.95 164.242 27.8975 164.518 27.7925C164.793 27.6875 165.025 27.54 165.215 27.35C165.445 27.11 165.605 26.8625 165.695 26.6075C165.785 26.3525 165.83 26 165.83 25.55L165.83 25.085Z"/>
</g>
</g>
</svg>

<?xml version="1.0" encoding="UTF-8" standalone="no"?><!DOCTYPE svg PUBLIC "-//W3C//DTD SVG 1.1//EN" "http://www.w3.org/Graphics/SVG/1.1/DTD/svg11.dtd"><svg width="168" height="66" viewBox="0 0 168 66" version="1.1" xmlns="http://www.w3.org/2000/svg" xmlns:xlink="http://www.w3.org/1999/xlink" xml:space="preserve" xmlns:serif="http://www.serif.com/" style="fill-rule:evenodd;clip-rule:evenodd;stroke-linejoin:round;stroke-miterlimit:2;"><path d="M0,0l0,26.6l4.14,0l0,-26.6l-4.14,0Zm4.29,0l2.59,26.6l1.4,0l-2.58,-26.6l-1.41,0Zm6.73,0l-2.58,26.6l1.4,0l2.59,-26.6l-1.41,0Zm1.56,0l0,26.6l4.18,0l0,-26.6l-4.18,0Zm15.69,0l0,20.48c0,3.57 3.23,6.35 6.69,6.35c3.46,0 6.69,-2.78 6.69,-6.35l0,-20.48l-4.18,0l0,20.33c0,1.44 -1.29,2.47 -2.51,2.47c-1.22,-0 -2.51,-1.03 -2.51,-2.47l0,-20.33l-4.18,0Zm26.26,0l0,26.6l4.18,0l0,-26.6l-4.18,0Zm4.33,0l3.95,26.6l1.45,0l-3.95,-26.6l-1.45,0Zm5.55,0l0,26.6l4.18,0l0,-26.6l-4.18,0Zm18.05,25.12l0,1.48l11.36,0l0,-1.48l-3.61,0l0,-23.64l3.61,0l0,-1.48l-11.36,0l0,1.48l3.57,0l-0,23.64l-3.57,0Z" style="fill:#0000dc;fill-rule:nonzero;"/><path d="M6.27,38.5l-5.74,26.6l2.13,0l1.79,-8.4l7.75,0l1.82,8.4l2.13,0l-5.66,-26.6l-2.05,0l3.42,16.3l-7.07,0l3.49,-16.3l-2.01,0Zm22.72,0l0,26.6l2.06,0l0,-11.25l3.45,0l6.31,11.25l2.36,0l-6.5,-11.48c3.12,-0.26 5.59,-2.88 5.59,-6.11l0,-2.66c0,-3.46 -2.89,-6.35 -6.35,-6.35l-6.92,0Zm6.73,13.41l-4.67,0l0,-11.51l4.67,0c2.43,0 4.52,1.98 4.52,4.48l0,2.4c0,2.73 -1.97,4.63 -4.52,4.63Zm24.81,-11.51l0,24.7l2.06,0l0,-24.7l7.1,0l0,-1.9l-16.26,0l0,1.9l7.1,0Zm27.63,24.93c3.65,0 6.57,-2.59 6.57,-6.35l0,-1.63c0,-4.33 -3.64,-5.82 -6.15,-6.39c-2.32,-0.53 -4.94,-1.4 -4.94,-4.52l0,-1.78c0,-2.47 2.13,-4.41 4.52,-4.41c2.36,0 4.52,1.94 4.52,4.41l0,0.95l2.05,0l0,-0.99c0,-3.65 -2.92,-6.35 -6.57,-6.35c-3.65,0 -6.57,2.7 -6.57,6.35l0,1.82c0,4.45 3.76,5.85 6.08,6.39c2.43,0.53 5.01,1.4 5.01,4.56l0,1.55c0,2.47 -2.13,4.41 -4.48,4.41c-2.4,0 -4.56,-1.94 -4.56,-4.41l0,-0.87l-2.05,0l0,0.91c0,3.76 2.92,6.35 6.57,6.35Z" style="fill:#0000dc;fill-rule:nonzero;"/><path d="M111.29,0.01l0,10.68l3.55,0c3.63,0 5.67,-1.92 5.67,-5.34c0,-3.42 -2.04,-5.34 -5.67,-5.34l-3.55,0Zm2.19,1.89l1.33,0c2.3,0 3.42,1.14 3.42,3.45c0,2.31 -1.12,3.45 -3.42,3.45l-1.33,0l0,-6.9Zm10.71,-0.09l0,-1.8l-2.1,0l0,1.8l2.1,0Zm0,8.88l0,-7.62l-2.1,0l0,7.62l2.1,0Zm4.7,-7.83c-1.92,0 -3.15,1.5 -3.15,3.87c0,2.37 1.21,3.87 3.12,3.87c0.91,0 1.56,-0.35 2.13,-1.14l0.03,0l0,0.67c0,1.49 -0.59,1.97 -1.53,1.97c-0.8,0 -1.28,-0.35 -1.32,-0.93l-2.1,0c0.12,1.5 1.27,2.43 3.37,2.43c2.19,0 3.62,-1.08 3.62,-3.39l0,-7.14l-1.98,0l0,1.02l-0.03,0c-0.59,-0.87 -1.24,-1.23 -2.16,-1.23Zm0.57,1.72c0.98,0 1.62,0.86 1.62,2.15c-0,1.29 -0.64,2.14 -1.62,2.14c-0.93,0 -1.53,-0.82 -1.53,-2.14c-0,-1.32 0.6,-2.15 1.53,-2.15Zm7.74,-2.77l-0,-1.8l-2.1,0l-0,1.8l2.1,0Zm-0,8.88l-0,-7.62l-2.1,0l-0,7.62l2.1,0Zm5.45,-1.58c-0.71,0 -0.99,-0.33 -0.99,-1.17l-0,-3.31l1.46,0l-0,-1.56l-1.46,0l-0,-1.98l-2.1,0l-0,1.98l-1.22,0l-0,1.56l1.22,0l-0,3.69c-0,1.77 0.77,2.47 2.53,2.47c0.35,0 0.82,-0.06 1.1,-0.15l-0,-1.6c-0.13,0.04 -0.34,0.07 -0.54,0.07Zm4.92,-6.28c-2.17,0 -3.22,1.17 -3.29,2.62l2.03,0c0.03,-0.72 0.48,-1.15 1.26,-1.15c0.74,0 1.25,0.39 1.25,1.35l-0,0.27c-0.48,0.03 -1.34,0.12 -1.91,0.21c-2.2,0.34 -2.95,1.18 -2.95,2.43c-0,1.32 0.98,2.31 2.6,2.31c1.04,0 1.9,-0.39 2.47,-1.2l0.03,0c-0,0.37 0.03,0.7 0.1,1.02l1.9,0c-0.14,-0.51 -0.22,-1.13 -0.22,-2.09l-0,-2.76c-0,-1.99 -1.11,-3.01 -3.27,-3.01Zm1.25,4.65c-0,0.69 -0.07,1.09 -0.44,1.45c-0.3,0.3 -0.76,0.44 -1.19,0.44c-0.74,0 -1.13,-0.39 -1.13,-0.96c-0,-0.62 0.36,-0.9 1.23,-1.05c0.45,-0.08 1.08,-0.14 1.53,-0.17l-0,0.29Zm6.08,3.21l-0,-10.68l-2.1,0l-0,10.68l2.1,0Zm4.13,-8.88l-0,-1.8l-2.09,0l-0,1.8l2.09,0Zm-0,8.88l-0,-7.62l-2.09,0l-0,7.62l2.09,0Zm5.03,-7.86c-2.18,0 -3.23,1.17 -3.3,2.62l2.04,0c0.03,-0.72 0.48,-1.15 1.26,-1.15c0.73,0 1.24,0.39 1.24,1.35l-0,0.27c-0.48,0.03 -1.33,0.12 -1.9,0.21c-2.21,0.34 -2.96,1.18 -2.96,2.43c-0,1.32 0.98,2.31 2.6,2.31c1.05,0 1.9,-0.39 2.47,-1.2l0.03,0c-0,0.37 0.03,0.7 0.11,1.02l1.89,0c-0.14,-0.51 -0.21,-1.13 -0.21,-2.09l-0,-2.76c-0,-1.99 -1.11,-3.01 -3.27,-3.01Zm1.24,4.65c0,0.69 -0.07,1.09 -0.43,1.45c-0.3,0.3 -0.77,0.44 -1.2,0.44c-0.74,0 -1.13,-0.39 -1.13,-0.96c0,-0.62 0.36,-0.9 1.23,-1.05c0.45,-0.08 1.08,-0.14 1.53,-0.17l0,0.29Z" style="fill:#0000dc;fill-rule:nonzero;"/><path d="M111.48,18.01l0,10.68l1.39,0l0,-4.5l1.87,0c1.14,0 1.63,0.4 2.07,1.68l0.97,2.82l1.5,0l-1.09,-3.08c-0.48,-1.32 -0.82,-1.77 -1.6,-2.01l0,-0.03c1.22,-0.28 2.03,-1.3 2.03,-2.67c0,-1.81 -1.17,-2.89 -3.75,-2.89l-3.39,0Zm1.39,1.19l1.9,0c1.56,0 2.45,0.57 2.45,1.81c0,1.15 -0.69,2.01 -2.36,2.01l-1.99,0l-0,-3.82Zm10.67,1.66c-1.93,0 -2.98,1.09 -3.06,2.53l1.32,0c0.05,-0.9 0.64,-1.51 1.74,-1.51c1.02,0 1.73,0.52 1.73,1.78l-0,0.3c-0.6,0.05 -1.53,0.15 -2.21,0.26c-2.19,0.34 -2.89,1.14 -2.89,2.4c-0,1.29 0.99,2.23 2.58,2.23c1.23,0 2.11,-0.46 2.64,-1.27l0.03,0c-0,0.34 0.03,0.76 0.1,1.11l1.2,0c-0.1,-0.47 -0.18,-1.11 -0.18,-1.95l-0,-2.93c-0,-2.01 -1.14,-2.95 -3,-2.95Zm1.73,4.57c0,0.9 -0.15,1.32 -0.62,1.8c-0.37,0.39 -0.96,0.6 -1.57,0.6c-0.99,0 -1.56,-0.52 -1.56,-1.3c0,-0.75 0.45,-1.13 1.75,-1.32c0.59,-0.11 1.42,-0.2 2,-0.24l0,0.46Zm7.19,-4.55c-1.02,0 -1.93,0.49 -2.33,1.28l-0.03,0l0,-1.09l-1.31,0l0,10.39l1.33,0l0,-3.85l0.03,0c0.41,0.76 1.3,1.26 2.32,1.26c1.93,0 3.18,-1.58 3.18,-4.01c0,-2.43 -1.25,-3.98 -3.19,-3.98Zm-0.34,1.06c1.31,0 2.15,1.14 2.15,2.92c0,1.79 -0.84,2.94 -2.15,2.94c-1.25,-0 -2.06,-1.12 -2.06,-2.94c0,-1.8 0.81,-2.92 2.06,-2.92Zm9.47,-4.14c-2.9,0 -4.68,2.11 -4.68,5.55c0,3.45 1.77,5.55 4.63,5.55c2.52,0 4.13,-1.5 4.35,-3.89l-1.44,0c-0.21,1.62 -1.32,2.63 -2.91,2.63c-1.98,0 -3.19,-1.62 -3.19,-4.29c0,-2.67 1.23,-4.29 3.24,-4.29c1.59,0 2.68,0.99 2.82,2.57l1.42,0c-0.12,-2.21 -1.68,-3.83 -4.24,-3.83Zm9.24,3.06c-2.24,0 -3.61,1.53 -3.61,4.02c0,2.49 1.37,4.02 3.61,4.02c2.23,0 3.63,-1.53 3.63,-4.02c0,-2.49 -1.4,-4.02 -3.63,-4.02Zm0,1.08c1.39,-0 2.25,1.12 2.25,2.94c0,1.81 -0.86,2.94 -2.25,2.94c-1.38,-0 -2.24,-1.13 -2.24,-2.94c0,-1.82 0.86,-2.94 2.24,-2.94Zm8.95,-0.95c-0.97,-0 -1.74,0.41 -2.25,1.25l-0.03,-0l0,-1.17l-1.26,-0l0,7.62l1.32,-0l0,-3.89c0,-1.67 0.81,-2.61 2.25,-2.61c0.17,-0 0.36,0.03 0.53,0.05l0,-1.19c-0.17,-0.04 -0.39,-0.06 -0.56,-0.06Z" style="fill:#0000dc;fill-rule:nonzero;"/></svg>
